Adwaita++-Light/panel/24/simplescreenrecorder-paused.svg

<svg height="24" width="24" xmlns="http://www.w3.org/2000/svg">
  <path d="m4.1816406 6c-.6547 0-1.1816406.5344188-1.1816406 1.1992188v9.6015622c0 .665.5269406 1.199219 1.1816406 1.199219h11.6367184c.655 0 1.181641-.534219 1.181641-1.199219v-2.800781l5 2v-8l-5 2v-2.8007812c0-.6648001-.526641-1.1992188-1.181641-1.1992188zm1.8183594 3h3v6h-3zm5 0h3v6h-3z" fill="#444"/>
</svg>

<svg xmlns="http://www.w3.org/2000/svg" width="24" height="24" version="1">
 <defs>
  <style id="current-color-scheme" type="text/css">
   .ColorScheme-Text { color:#444444; } .ColorScheme-Highlight { color:#4285f4; }
  </style>
 </defs>
 <path style="fill:currentColor" class="ColorScheme-Text" d="M 4.1816406,6 C 3.5269406,6 3,6.5344188 3,7.1992188 L 3,16.800781 C 3,17.465781 3.5269406,18 4.1816406,18 L 15.818359,18 C 16.473359,18 17,17.465781 17,16.800781 L 17,14 l 5,2 0,-8 -5,2 0,-2.8007812 C 17,6.5344187 16.473359,6 15.818359,6 L 4.1816406,6 Z M 6,9 9,9 9,15 6,15 6,9 Z m 5,0 3,0 0,6 -3,0 0,-6 z"/>
</svg>
